X:191
T:Vicar & Moses THO3.191
O:England;London
M:6/8
L:1/8
Z:vmp. Peter Dunk 2011.from a transcription by Fynn Titford-Mock 2006-9
B:Thompson's Compleat Collection of 200 Favourite Country Dances Vol. III.1765-72
Q:3/8=110
K:F
F2 c cAc|dBd f3|F2 c cAF|E2 F GE[cC]|F2 c cAF|dBd g2 f|edc dc=B|c3[c3C3]:|
|:[cC]EF GAB| cAF dBG|gec afd|bag {f}e3|fga cAF|def cAF|dcB cba|gfe f3:|

